app/images/ur-backup.svg

<svg width="301" height="82" viewBox="0 0 301 82" fill="none" xmlns="http://www.w3.org/2000/svg">
<path fill-rule="evenodd" clip-rule="evenodd" d="M26.0824 0.403859C17.9782 1.50895 12.7892 4.16932 10.4798 8.40362C8.39361 12.2282 8.2854 13.2555 8.28399 29.2427L8.28293 43.8389L9.42844 43.949C10.3773 44.0405 10.574 44.2065 10.574 44.9162V45.7734H14.7827H18.9919L19.1004 30.7013L19.2094 15.6289L20.443 13.219C21.8927 10.3869 23.5923 8.93964 26.6383 7.94323C28.4196 7.36079 29.7336 7.2616 35.599 7.26793C41.9539 7.27462 42.6261 7.33652 44.5142 8.09024C46.0492 8.70293 46.7852 9.2502 47.4771 10.293C49.3127 13.0614 49.4406 14.2157 49.6088 29.5065L49.7646 43.6631H50.7885C51.6457 43.6631 51.8124 43.8062 51.8124 44.5424V45.4216H56.042H60.2715L60.2606 31.9685C60.249 17.3263 60.0195 14.2903 58.7108 11.4375C57.4395 8.6667 56.3571 7.42409 53.3026 5.22939C49.9253 2.80326 47.9688 1.93523 43.8819 1.04996C40.2441 0.26247 29.8799 -0.113865 26.0824 0.403859ZM204.43 43.4872V67.228H208.836H213.241V59.2497V51.2714L217.669 58.9859C220.105 63.229 222.219 66.8235 222.367 66.9741C222.515 67.1242 224.966 67.2034 227.812 67.1499L232.988 67.0521L228.019 59.3144C225.286 55.0586 222.832 51.2376 222.568 50.8229C222.121 50.1241 222.439 49.5473 226.939 42.8935C229.607 38.9469 231.909 35.5272 232.054 35.294C232.254 34.9704 231.068 34.8702 227.044 34.8702H221.771L217.594 42.1503L213.418 49.4301L213.326 34.5885L213.234 19.7464H208.832H204.43V43.4872ZM28.9726 37.4201C29.0872 52.2544 29.1101 52.6877 29.9007 54.8888C31.0194 58.0029 32.4571 59.9506 35.0104 61.8119C37.9453 63.9514 40.875 65.3034 44.6274 66.2502C47.4616 66.9653 48.563 67.0381 56.2182 67.0152C63.7708 66.9923 64.9794 66.9072 67.4971 66.2214C73.2553 64.6527 77.1127 62.0332 78.9462 58.4467C80.5274 55.3544 80.7138 53.2139 80.7255 38.0356L80.736 23.7912L79.6681 23.6811C78.8845 23.6002 78.5997 23.3891 78.5997 22.8897C78.5997 22.2538 78.3188 22.2084 74.3878 22.2084H70.1755L70.0701 37.2443L69.9643 52.2801L68.9753 54.2898C67.7449 56.7908 65.4619 58.8357 63.0225 59.6218C59.9554 60.6101 54.3181 61.0223 50.0148 60.5728C43.5605 59.8986 42.1467 59.0552 40.4193 54.8508C39.6805 53.0518 39.6485 52.4458 39.5462 38.2994L39.4405 23.6153H38.4007C37.5964 23.6153 37.3613 23.4563 37.3613 22.9119C37.3613 22.2471 37.1262 22.2084 33.1081 22.2084H28.8553L28.9726 37.4201ZM109.969 44.7182V67.228H118.733C123.552 67.228 128.339 67.0687 129.369 66.8735C133.923 66.0118 137.777 63.031 139.251 59.2307C139.851 57.6817 140.039 56.4578 140.045 54.0387C140.054 50.3319 139.567 48.9726 137.377 46.602C135.807 44.9025 134.591 44.146 132.351 43.4735L130.941 43.0504L132.224 42.5116C133.965 41.7803 136.242 39.6662 137.393 37.7135C138.244 36.2683 138.343 35.7551 138.343 32.7599C138.343 29.7759 138.242 29.2494 137.407 27.8359C136.216 25.8216 135.253 24.9395 133.056 23.8478C130.331 22.4944 127.8 22.2084 118.54 22.2084H109.969V44.7182ZM126.551 30.4006C128.165 31.1919 129.002 32.6421 129.002 34.6486C129.002 36.7417 128.189 38.3824 126.62 39.4559C125.56 40.1811 124.849 40.3418 122.244 40.4445L119.133 40.5676V35.046V29.5245L122.217 29.6564C124.199 29.7411 125.748 30.007 126.551 30.4006ZM100.19 34.5596C98.7382 34.9782 96.6861 37.0146 95.8374 38.8794L95.1811 40.3218L95.1734 37.596L95.1656 34.8702H90.7598H86.354V51.0491V67.228H90.7393H95.1247L95.2333 57.4679C95.3365 48.1763 95.3799 47.6308 96.1338 46.104C97.2934 43.7559 98.7674 42.7827 101.158 42.7876C102.224 42.7898 103.532 42.9255 104.065 43.0894L105.035 43.3877V38.9905C105.035 34.1168 105.046 34.139 102.627 34.1984C101.916 34.216 100.819 34.3785 100.19 34.5596ZM152.617 34.7175C151.357 34.9898 149.494 35.5497 148.476 35.9616L146.626 36.7104V40.3918C146.626 42.4166 146.744 44.0141 146.89 43.9413C151.903 41.4367 152.665 41.156 154.975 40.963C158.812 40.6418 160.54 41.748 161.236 44.969C161.519 46.283 162.009 46.0998 155.423 47.144C150.244 47.9653 148.239 48.7355 146.338 50.633C144.35 52.6167 143.688 54.849 143.868 58.9623C143.994 61.8397 144.137 62.4338 145.063 63.9286C145.71 64.9728 146.78 66.0367 147.841 66.6913C149.41 67.6595 149.839 67.7556 152.59 67.7556C155.277 67.7556 155.803 67.6444 157.318 66.756C158.255 66.2059 159.524 65.0442 160.138 64.1737L161.253 62.5913L161.357 64.9095L161.461 67.228H165.519H169.577L169.466 55.0059C169.361 43.4647 169.312 42.6811 168.6 40.9429C167.735 38.8319 166.421 37.1514 164.747 36.014C162.168 34.2614 157.19 33.7296 152.617 34.7175ZM187.159 34.5297C183.008 35.3995 179.036 38.47 177.081 42.3216C174.481 47.4412 174.528 55.7413 177.184 60.6112C178.366 62.7795 180.894 65.2964 182.929 66.3329C186.854 68.331 192.936 68.4636 197.116 66.642L198.438 66.0659V62.0747C198.438 59.8796 198.379 58.0834 198.306 58.0834C198.233 58.0834 197.445 58.49 196.554 58.9869C193.416 60.7371 189.349 60.4606 186.919 58.3324C183.654 55.4719 183.123 49.4354 185.769 45.2718C188.014 41.7392 193.427 40.8268 197.082 43.3652C197.597 43.7225 198.113 44.0148 198.228 44.0148C198.343 44.0148 198.438 42.1074 198.438 39.7763V35.5377L197.116 34.9863C195.533 34.3254 189.462 34.0468 187.159 34.5297ZM285.851 34.7569C284.878 35.1136 283.484 36.1195 282.238 37.3621L280.21 39.3862V37.1282V34.8702H275.804H271.398V58.4351V82H275.804H280.21L280.214 72.7675L280.218 63.535L281.121 64.6784C281.617 65.3069 282.766 66.2566 283.672 66.7887C285.123 67.6398 285.68 67.7552 288.317 67.752C291.927 67.7478 293.863 66.9934 296.14 64.7034C299.395 61.4296 301.009 56.6143 301 50.2015C300.987 40.1122 297.269 34.6711 290.143 34.3124C288.214 34.2153 286.98 34.343 285.851 34.7569ZM235.806 45.3337C235.814 56.8432 236.083 59.7403 237.415 62.6437C239.186 66.5042 241.198 67.745 245.696 67.7513C248.452 67.7552 248.873 67.6609 250.454 66.6874C251.408 66.1 252.744 64.8718 253.422 63.9577L254.656 62.2962L254.76 64.7621L254.863 67.228H259.254H263.644V51.0491V34.8702H259.261H254.879L254.767 45.5096C254.664 55.4033 254.607 56.2327 253.951 57.343C252.965 59.014 251.646 59.893 249.85 60.0759C247.903 60.2739 246.401 59.3942 245.466 57.5094C244.856 56.2787 244.78 55.1329 244.67 45.5096L244.549 34.8702H240.174H235.799L235.806 45.3337ZM289.312 42.8408C289.831 43.2164 290.627 44.2645 291.082 45.1698C291.77 46.538 291.911 47.3663 291.917 50.0755C291.928 55.0847 290.942 57.6385 288.308 59.4252C287.318 60.097 286.757 60.226 285.383 60.0984C283.22 59.8972 282.023 59.0225 280.915 56.8341C280.141 55.307 280.034 54.6415 280.034 51.4008C280.034 49.0397 280.213 47.2639 280.531 46.4768C281.285 44.6074 282.644 42.9435 283.868 42.3902C285.312 41.7374 288.108 41.9689 289.312 42.8408ZM4.58205 49.1147V50.3457H13.5699H22.5578V49.1147V47.8837H13.5699H4.58205V49.1147ZM41.5909 49.1147V50.3457H54.9846H68.3783V49.1147V47.8837H54.9846H41.5909V49.1147ZM126.595 48.2463C129.55 49.0651 131.25 52.1763 130.434 55.2697C129.573 58.5308 127.297 59.8226 122.394 59.8342L119.133 59.842V53.8628V47.8837L122.217 47.8858C123.914 47.8868 125.884 48.049 126.595 48.2463ZM2.11479 52.8077V54.2145H13.3937H24.6726V52.8077V51.4008H13.3937H2.11479V52.8077ZM43.7057 52.8077V54.2145H54.9846H66.2635V52.8077V51.4008H54.9846H43.7057V52.8077ZM161.421 53.2473C161.416 54.0696 161.268 55.3629 161.092 56.1219C160.237 59.8001 156.44 61.9435 153.671 60.3115C151.709 59.1547 151.265 56.0916 152.796 54.2761C153.803 53.0809 154.813 52.7816 161.165 51.7937C161.31 51.7712 161.425 52.425 161.421 53.2473ZM0 56.5007V57.7317H13.3937H26.7874V56.5007V55.2697H13.3937H0V56.5007ZM45.8205 56.5007V57.7317H54.9846H64.1487V56.5007V55.2697H54.9846H45.8205V56.5007Z" fill="#22A1BF"/>
</svg>

<svg xmlns="http://www.w3.org/2000/svg" width="301" height="82" fill="none"><path fill="#22A1BF" fill-rule="evenodd" d="M26.082.404c-8.104 1.105-13.293 3.765-15.602 8-2.086 3.824-2.195 4.851-2.196 20.839l-.001 14.596 1.145.11c.95.092 1.146.258 1.146.967v.857h8.418l.108-15.072.11-15.072 1.233-2.41c1.45-2.832 3.15-4.28 6.195-5.276 1.782-.582 3.096-.681 8.961-.675 6.355.007 7.027.069 8.915.822 1.535.613 2.271 1.16 2.963 2.203 1.836 2.768 1.964 3.923 2.132 19.213l.156 14.157h1.023c.858 0 1.024.143 1.024.88v.879h8.46l-.011-13.453c-.012-14.643-.242-17.679-1.55-20.532-1.271-2.77-2.354-4.013-5.408-6.208-3.378-2.426-5.334-3.294-9.421-4.179C40.244.262 29.88-.114 26.082.404ZM204.43 43.487v23.741h8.811V51.271l4.428 7.715c2.436 4.243 4.55 7.837 4.698 7.988.148.15 2.599.23 5.445.176l5.176-.098-4.969-7.738c-2.733-4.255-5.187-8.076-5.451-8.491-.447-.699-.129-1.276 4.371-7.93 2.668-3.946 4.97-7.366 5.115-7.599.2-.324-.986-.424-5.01-.424h-5.273l-4.177 7.28-4.176 7.28-.092-14.841-.092-14.843h-8.804v23.741ZM28.973 37.42c.114 14.834.137 15.268.928 17.469 1.118 3.114 2.556 5.062 5.11 6.923 2.934 2.14 5.864 3.491 9.616 4.438 2.835.715 3.936.788 11.591.765 7.553-.023 8.761-.108 11.28-.794 5.757-1.568 9.615-4.188 11.448-7.774 1.581-3.093 1.768-5.233 1.78-20.411l.01-14.245-1.068-.11c-.784-.08-1.068-.292-1.068-.791 0-.636-.281-.682-4.212-.682h-4.213l-.105 15.036-.106 15.036-.989 2.01c-1.23 2.5-3.513 4.546-5.952 5.332-3.068.988-8.705 1.4-13.008.95-6.455-.673-7.868-1.517-9.596-5.721-.738-1.8-.77-2.405-.873-16.552l-.105-14.684H38.4c-.805 0-1.04-.159-1.04-.703 0-.665-.235-.704-4.253-.704h-4.253l.118 15.212Zm80.996 7.298v22.51h8.764c4.819 0 9.606-.16 10.636-.354 4.554-.862 8.408-3.843 9.882-7.643.6-1.55.788-2.773.794-5.192.009-3.707-.478-5.066-2.668-7.437-1.57-1.7-2.786-2.456-5.026-3.128l-1.41-.424 1.283-.538c1.741-.732 4.018-2.846 5.169-4.798.851-1.446.95-1.959.95-4.954 0-2.984-.101-3.51-.936-4.924-1.191-2.014-2.154-2.896-4.351-3.988-2.725-1.354-5.256-1.64-14.516-1.64h-8.571v22.51Zm16.582-14.317c1.614.79 2.451 2.241 2.451 4.248 0 2.093-.813 3.733-2.382 4.807-1.06.725-1.771.886-4.376.988l-3.111.124V29.525l3.084.131c1.982.085 3.531.351 4.334.745ZM100.19 34.56c-1.452.418-3.504 2.455-4.353 4.32l-.656 1.442-.008-2.726-.007-2.726h-8.812V67.228h8.771l.108-9.76c.103-9.292.147-9.837.9-11.364 1.16-2.348 2.634-3.321 5.025-3.316 1.066.002 2.374.138 2.907.301l.97.299V38.99c0-4.873.011-4.851-2.408-4.792-.711.018-1.808.18-2.437.362Zm52.427.157c-1.26.273-3.123.833-4.141 1.245l-1.85.748v3.682c0 2.025.118 3.622.264 3.55 5.013-2.505 5.775-2.786 8.085-2.979 3.837-.321 5.565.785 6.261 4.006.283 1.314.773 1.13-5.813 2.175-5.179.821-7.184 1.592-9.085 3.489-1.988 1.984-2.65 4.216-2.47 8.33.126 2.877.269 3.47 1.195 4.966.647 1.044 1.717 2.108 2.778 2.762 1.569.968 1.998 1.065 4.749 1.065 2.687 0 3.213-.112 4.728-1 .937-.55 2.206-1.712 2.82-2.582l1.115-1.583.104 2.318.104 2.319h8.116l-.111-12.222c-.105-11.541-.154-12.325-.866-14.063-.865-2.111-2.179-3.792-3.853-4.929-2.579-1.753-7.557-2.284-12.13-1.297Zm34.542-.187c-4.151.87-8.123 3.94-10.078 7.792-2.6 5.12-2.553 13.42.103 18.29 1.182 2.167 3.71 4.684 5.745 5.72 3.925 1.999 10.007 2.132 14.187.31l1.322-.576v-3.991c0-2.195-.059-3.992-.132-3.992-.073 0-.861.407-1.752.904-3.138 1.75-7.205 1.474-9.635-.655-3.265-2.86-3.796-8.897-1.15-13.06 2.245-3.533 7.658-4.445 11.313-1.907.515.357 1.031.65 1.146.65.115 0 .21-1.908.21-4.239v-4.238l-1.322-.552c-1.583-.66-7.654-.94-9.957-.456Zm98.692.227c-.973.357-2.367 1.363-3.613 2.605l-2.028 2.024V34.87h-8.812V82h8.812l.004-9.233.004-9.232.903 1.143c.496.629 1.645 1.579 2.551 2.11 1.451.852 2.008.967 4.645.964 3.61-.004 5.546-.759 7.823-3.049 3.255-3.273 4.869-8.089 4.86-14.502-.013-10.089-3.731-15.53-10.857-15.889-1.929-.097-3.163.031-4.292.445Zm-50.045 10.577c.008 11.51.277 14.406 1.609 17.31 1.771 3.86 3.783 5.101 8.281 5.107 2.756.004 3.177-.09 4.758-1.064.954-.587 2.29-1.815 2.968-2.73l1.234-1.66.104 2.465.103 2.466H263.644V34.87h-8.765l-.112 10.64c-.103 9.893-.16 10.723-.816 11.833-.986 1.671-2.305 2.55-4.101 2.733-1.947.198-3.449-.682-4.384-2.567-.61-1.23-.686-2.376-.796-12l-.121-10.639h-8.75l.007 10.464Zm53.506-2.493c.519.375 1.315 1.423 1.77 2.329.688 1.368.829 2.196.835 4.905.011 5.01-.975 7.563-3.609 9.35-.99.672-1.551.801-2.925.673-2.163-.2-3.36-1.075-4.468-3.264-.774-1.527-.881-2.193-.881-5.433 0-2.361.179-4.137.497-4.924.754-1.87 2.113-3.533 3.337-4.087 1.444-.653 4.24-.421 5.444.45ZM4.582 49.115v1.23h17.976V47.885H4.582v1.23Zm37.009 0v1.23h26.787V47.885H41.591v1.23Zm85.004-.869c2.955.82 4.655 3.93 3.839 7.024-.861 3.26-3.137 4.553-8.04 4.564l-3.261.008V47.884l3.084.002c1.697 0 3.667.163 4.378.36ZM2.115 52.808v1.407h22.558V51.4H2.115v1.407Zm41.59 0v1.407h22.558V51.4H43.705v1.407Zm117.716.44c-.005.822-.153 2.115-.329 2.874-.855 3.678-4.652 5.822-7.421 4.19-1.962-1.157-2.406-4.22-.875-6.036 1.007-1.195 2.017-1.494 8.369-2.482.145-.023.26.631.256 1.453ZM0 56.5v1.23h26.787V55.27H0v1.23Zm45.82 0v1.23H64.15V55.27H45.82v1.23Z" clip-rule="evenodd"/></svg>
